X: 4375
M: C
L: 1/8
K: G
[1 A2 |\
d2d>d d2e2 | f2f>f f2g2 | afaf bagf | e2e>e e2A2 |\
d2d>d d2e2 | f2f>f f2g2 | a>fb>g fed^c | d2d>e d=cBA !segno!|]
[2 D2 |\
g>ab>a g>fe>d | e>fg>f g>ed>c | B4 A4 | G3b gbgb | g2g>g "_D.C."g2 |]


